packages/foundations/assets/icons/functional/images/file/paper_clip_16.svg

<svg width="16" height="16" viewBox="0 0 16 16" fill="none" xmlns="http://www.w3.org/2000/svg">
<g clip-path="url(#clip0_185_1001)">
<path fill-rule="evenodd" clip-rule="evenodd" d="M11.484 3.06303C12.3108 3.89594 12.3391 5.22172 11.5705 6.08832L7.16225 10.5023C6.84983 10.8147 6.3433 10.8147 6.03088 10.5023C5.74077 10.2121 5.72005 9.75467 5.96871 9.44066L10.3469 5.05485C10.5855 4.81629 10.5862 4.42972 10.3485 4.19029C10.1337 3.97393 9.7954 3.95473 9.55871 4.13352L5.12882 8.55521C4.34393 9.3401 4.34277 10.6123 5.12623 11.3986C5.87549 12.1506 7.07378 12.1828 7.86149 11.4937L11.695 7.66658C12.0074 7.35416 12.5139 7.35416 12.8263 7.66658C13.1165 7.95668 13.1372 8.41416 12.8885 8.72817L9.08706 12.5372C7.67775 13.9414 5.39697 13.9372 3.99279 12.5279C2.62662 11.1568 2.58956 8.96255 3.88013 7.5467L8.36959 3.0517C9.23274 2.19483 10.6271 2.19991 11.484 3.06303Z" fill="#1A1C1F"/>
</g>
<defs>
<clipPath id="clip0_185_1001">
<rect width="16" height="16" fill="white"/>
</clipPath>
</defs>
</svg>

<svg xmlns="http://www.w3.org/2000/svg" width="16" height="16" fill="none"><g clip-path="url(#a)"><path fill="#1A1C1F" fill-rule="evenodd" d="M11.484 3.063c.827.833.855 2.159.086 3.025l-4.408 4.414A.8.8 0 0 1 5.97 9.441l4.378-4.386a.61.61 0 0 0 .002-.865.6.6 0 0 0-.79-.056l-4.43 4.421a2.01 2.01 0 0 0-.003 2.844c.75.752 1.948.784 2.735.095l3.834-3.827a.8.8 0 0 1 1.194 1.061l-3.802 3.81a3.6 3.6 0 0 1-5.094-.01 3.613 3.613 0 0 1-.113-4.981l4.49-4.495a2.2 2.2 0 0 1 3.114.011" clip-rule="evenodd"/></g><defs><clipPath id="a"><path fill="#fff" d="M0 0h16v16H0z"/></clipPath></defs></svg>
